icons/evolvere-blue-folders-flat-vivid-dark-fallback/apps/64/openbox.svg

<?xml version="1.0" encoding="UTF-8" standalone="no"?>
<!-- Created with Inkscape (http://www.inkscape.org/) -->

<svg
   xmlns:dc="http://purl.org/dc/elements/1.1/"
   xmlns:cc="http://creativecommons.org/ns#"
   xmlns:rdf="http://www.w3.org/1999/02/22-rdf-syntax-ns#"
   xmlns:svg="http://www.w3.org/2000/svg"
   xmlns="http://www.w3.org/2000/svg"
   xmlns:sodipodi="http://sodipodi.sourceforge.net/DTD/sodipodi-0.dtd"
   xmlns:inkscape="http://www.inkscape.org/namespaces/inkscape"
   width="64"
   height="64"
   id="svg13094"
   version="1.1"
   inkscape:version="0.91+devel r"
   sodipodi:docname="openbox.svg">
  <sodipodi:namedview
     id="base"
     pagecolor="#ffffff"
     bordercolor="#666666"
     borderopacity="1.0"
     inkscape:pageopacity="0"
     inkscape:pageshadow="2"
     inkscape:zoom="11.313709"
     inkscape:cx="43.391045"
     inkscape:cy="30.399697"
     inkscape:document-units="px"
     inkscape:current-layer="svg13094"
     showgrid="true"
     inkscape:snap-bbox="true"
     inkscape:bbox-paths="true"
     inkscape:bbox-nodes="true"
     inkscape:snap-bbox-edge-midpoints="true"
     inkscape:snap-bbox-midpoints="true"
     inkscape:object-paths="true"
     inkscape:snap-intersection-paths="true"
     inkscape:object-nodes="true"
     inkscape:snap-smooth-nodes="true"
     inkscape:snap-midpoints="true"
     inkscape:snap-object-midpoints="true"
     inkscape:snap-center="true"
     showguides="false"
     inkscape:guide-bbox="true"
     inkscape:window-width="1920"
     inkscape:window-height="1023"
     inkscape:window-x="-10"
     inkscape:window-y="35"
     inkscape:window-maximized="1"
     inkscape:snap-global="true"
     fit-margin-top="0"
     fit-margin-left="0"
     fit-margin-right="0"
     fit-margin-bottom="0"
     showborder="true"
     inkscape:showpageshadow="false"
     inkscape:snap-page="true">
    <inkscape:grid
       type="xygrid"
       id="grid3075"
       empspacing="5"
       visible="true"
       enabled="true"
       snapvisiblegridlinesonly="true"
       originx="1.6362304e-08px"
       originy="18px" />
    <sodipodi:guide
       orientation="0,1"
       position="-11,30"
       id="guide9148" />
    <sodipodi:guide
       orientation="1,0"
       position="32,70"
       id="guide9150" />
  </sodipodi:namedview>
  <defs
     id="defs13096" />
  <metadata
     id="metadata13099">
    <rdf:RDF>
      <cc:Work
         rdf:about="">
        <dc:format>image/svg+xml</dc:format>
        <dc:type
           rdf:resource="http://purl.org/dc/dcmitype/StillImage" />
        <dc:title></dc:title>
      </cc:Work>
    </rdf:RDF>
  </metadata>
  <path
     id="path6538"
     d="m 0,2 0,32 0,28 2,2 30,0 30,0 2,-2 0,-28 0,-32 -32,0 z"
     style="color:#000000;fill:#2a63bc;fill-opacity:1;fill-rule:nonzero;stroke:none;stroke-width:2.28571415;marker:none;visibility:visible;display:inline;overflow:visible;enable-background:accumulate"
     inkscape:connector-curvature="0"
     sodipodi:nodetypes="ccccccccccc" />
  <path
     style="color:#000000;fill:#5295ff;fill-opacity:1;fill-rule:nonzero;stroke:none;marker:none;visibility:visible;display:inline;overflow:visible;enable-background:accumulate"
     d="M 2,0 0,1 0,2 19.5625,2 39.125,2 64,2 64,1 62,0 39.125,0 19.5625,0 z"
     id="path6688"
     inkscape:connector-curvature="0"
     sodipodi:nodetypes="ccccccccccc" />
  <path
     d="M 64,4 62,2 64,1 z"
     id="path3028"
     style="fill:#3c79d8;fill-opacity:1"
     inkscape:connector-curvature="0"
     sodipodi:nodetypes="cccc" />
  <g
     id="g3043"
     inkscape:export-filename="folder.png"
     inkscape:export-xdpi="90"
     inkscape:export-ydpi="90"
     transform="translate(-0.62500009,0.082283)" />
  <g
     id="scalable"
     transform="matrix(1.0385892,0,0,1.0385892,1214.7222,1878.8121)"
     inkscape:label="#g3701"
     style="fill:#ffffff" />
  <path
     style="fill:#7cafff;fill-opacity:1;fill-rule:nonzero"
     d="M 0,1 0,4 2,2 Z"
     id="path4298"
     inkscape:connector-curvature="0"
     sodipodi:nodetypes="cccc" />
  <rect
     style="color:#000000;fill:#ffffff;fill-opacity:0.68727601;fill-rule:nonzero;stroke:none;stroke-width:2;marker:none;visibility:visible;display:inline;overflow:visible;enable-background:accumulate"
     id="rect3011"
     width="56"
     height="42"
     x="4"
     y="15" />
  <rect
     style="color:#000000;fill:#36567d;fill-opacity:1;fill-rule:nonzero;stroke:none;stroke-width:1.20000005;marker:none;visibility:visible;display:inline;overflow:visible;enable-background:accumulate"
     id="rect3802"
     width="3"
     height="22"
     x="56"
     y="19"
     rx="1.5"
     ry="1.5" />
  <rect
     style="color:#000000;fill:#36567d;fill-opacity:1;fill-rule:nonzero;stroke:none;stroke-width:1.20000005;marker:none;visibility:visible;display:inline;overflow:visible;enable-background:accumulate"
     id="rect3781"
     width="3"
     height="22"
     x="-56"
     y="8"
     rx="1.5"
     ry="1.5"
     transform="matrix(0,-1,1,0,0,0)" />
  <g
     id="active-center"
     inkscape:label="#g3851"
     transform="matrix(0.5625,0,0,0.5625,1.7324219,4)"
     style="fill:#d8dfea;fill-opacity:1">
    <rect
       y="0"
       x="0"
       height="16"
       width="16"
       id="rect3853"
       style="opacity:0.00100002000000000;fill:#d8dfea;fill-opacity:1;fill-rule:nonzero;stroke:none" />
    <path
       sodipodi:nodetypes="ccccccccccccc"
       inkscape:connector-curvature="0"
       id="path3855"
       d="M 5.46875,4.03125 4.03125,5.46875 6.5625,8 4.03125,10.53125 5.46875,11.96875 8,9.4375 l 2.53125,2.53125 1.4375,-1.4375 L 9.4375,8 11.96875,5.46875 10.53125,4.03125 8,6.5625 z"
       style="font-size:medium;font-style:normal;font-variant:normal;font-weight:normal;font-stretch:normal;text-indent:0;text-align:start;text-decoration:none;line-height:normal;letter-spacing:normal;word-spacing:normal;text-transform:none;direction:ltr;block-progression:tb;writing-mode:lr-tb;text-anchor:start;baseline-shift:baseline;color:#000000;fill:#dce5f4;fill-opacity:1;stroke:none;stroke-width:2;marker:none;visibility:visible;display:inline;overflow:visible;enable-background:accumulate;font-family:Sans;-inkscape-font-specification:Sans" />
  </g>
  <g
     id="active-center-8"
     inkscape:label="#g3851"
     transform="matrix(0.5625,0,0,0.5625,19.732422,4)"
     style="fill:#d8dfea;fill-opacity:1">
    <rect
       y="0"
       x="0"
       height="16"
       width="16"
       id="rect3853-9"
       style="opacity:0.00100002000000000;fill:#d8dfea;fill-opacity:1;fill-rule:nonzero;stroke:none" />
    <path
       style="font-size:medium;font-style:normal;font-variant:normal;font-weight:normal;font-stretch:normal;text-indent:0;text-align:start;text-decoration:none;line-height:normal;letter-spacing:normal;word-spacing:normal;text-transform:none;direction:ltr;block-progression:tb;writing-mode:lr-tb;text-anchor:start;baseline-shift:baseline;color:#000000;fill:#dce5f4;fill-opacity:1;stroke:none;stroke-width:2;marker:none;visibility:visible;display:inline;overflow:visible;enable-background:accumulate;font-family:Sans;-inkscape-font-specification:Sans"
       d="m 5,5 0,6 6,0 0,-6 z M 7,7 9,7 9,9 7,9 z"
       id="path2994"
       inkscape:connector-curvature="0"
       sodipodi:nodetypes="cccccccccc" />
  </g>
  <g
     id="active-center-3"
     inkscape:label="#g3851"
     transform="matrix(0.5625,0,0,0.5625,10.732422,4)"
     style="fill:#d8dfea;fill-opacity:1">
    <rect
       y="0"
       x="0"
       height="16"
       width="16"
       id="rect3853-8"
       style="opacity:0.00100002000000000;fill:#d8dfea;fill-opacity:1;fill-rule:nonzero;stroke:none" />
    <path
       sodipodi:nodetypes="ccccc"
       inkscape:connector-curvature="0"
       id="path3855-3"
       d="M 4,6.967068 4,9 12,9 12,6.967068 z"
       style="font-size:medium;font-style:normal;font-variant:normal;font-weight:normal;font-stretch:normal;text-indent:0;text-align:start;text-decoration:none;line-height:normal;letter-spacing:normal;word-spacing:normal;text-transform:none;direction:ltr;block-progression:tb;writing-mode:lr-tb;text-anchor:start;baseline-shift:baseline;color:#000000;fill:#dce5f4;fill-opacity:1;stroke:none;stroke-width:2;marker:none;visibility:visible;display:inline;overflow:visible;enable-background:accumulate;font-family:Sans;-inkscape-font-specification:Sans" />
  </g>
  <path
     style="color:#000000;fill:#dce5f4;fill-opacity:1;fill-rule:nonzero;stroke:none;stroke-width:1.125;marker:none;visibility:visible;display:inline;overflow:visible;enable-background:accumulate"
     d="m 57.7,4.9 0,1.4 0,0.8 0,2.6 0.4,0.4 2,0 0.4,-0.4 0,-3.4 -0.4,-0.4 -1.2,0 0,-1 -1.2,0 z m -2.8,1 -0.4,0.4 0,3.4 0.4,0.4 2,0 0.4,-0.4 0,-3.4 -0.4,-0.4 -2,0 z m 0.8,1 0.4,0 0,2.2 -0.4,0 0,-2.2 z m 3.2,0 0.4,0 0,2.2 -0.4,0 0,-2 0,-0.2 z"
     id="path3813"
     inkscape:connector-curvature="0" />
</svg>

<svg xmlns="http://www.w3.org/2000/svg" viewBox="0 0 64 64" xmlns:xlink="http://www.w3.org/1999/xlink"><defs><path id="0" d="m0 0h16v16h-16z" opacity=".001"/></defs><g color="#000"><path d="m0 2v32 28l2 2h30 30l2-2v-28-32h-32z" fill="#2a63bc"/><path d="m2 0l-2 1v1h19.563 19.563 24.875v-1l-2-1h-22.875-19.563z" fill="#5295ff"/></g><path d="m64 4l-2-2 2-1z" fill="#3c79d8"/><path d="m0 1v3l2-2" fill="#7cafff"/><g color="#000"><path fill="#fff" fill-opacity=".687" d="m4 15h56v42h-56z"/><g fill="#36567d"><rect width="3" height="22" x="56" y="19" rx="1.5"/><rect width="3" height="22" x="-56" y="8" rx="1.5" transform="matrix(0-1 1 0 0 0)"/></g></g><g transform="matrix(.5625 0 0 .5625 1.732 4)" fill="#d8dfea"><use xlink:href="#0"/><path d="m5.469 4.03l-1.438 1.438 2.531 2.531-2.531 2.531 1.438 1.438 2.531-2.531 2.531 2.531 1.438-1.438-2.531-2.531 2.531-2.531-1.438-1.438-2.531 2.531z" color="#000" fill="#dce5f4"/></g><g fill="#d8dfea"><g transform="matrix(.5625 0 0 .5625 19.732 4)"><use xlink:href="#0"/><path d="m5 5v6h6v-6zm2 2h2v2h-2z" color="#000" fill="#dce5f4"/></g><g transform="matrix(.5625 0 0 .5625 10.732 4)"><use xlink:href="#0"/><path d="m4 6.967v2.033h8v-2.033z" color="#000" fill="#dce5f4"/></g></g><path d="m57.7 4.9v1.4.8 2.6l.4.4h2l.4-.4v-3.4l-.4-.4h-1.2v-1h-1.2m-2.8 1l-.4.4v3.4l.4.4h2l.4-.4v-3.4l-.4-.4h-2m.8 1h.4v2.2h-.4v-2.2m3.2 0h.4v2.2h-.4v-2-.2" fill="#dce5f4" color="#000"/></svg>
